X: 77
M: C
L: 1/8
K: D
"a."D3D D2D2 | FDFA dAF2 | "b."E3E E2E2 | EDEF "c."GFEF |
"d."D3D D2D2 | FDF[AD] dAF2 | E3E EGFE | D2F2 D2 ||
d2dA F2A2 | dAdA F2A2 | e2ec A2cd | efec A2Bc |
d2dA F2A2 | dAdA F2[A2D2] | "e."E2EE EGFE | D2F2 D4 |]
P: Var:
"a."D2DD D2DD || "b."E2EE || "c."GFE2 || "d."D2DD || "e."E2E2 |]


